X: 1
T: Boys of Coomanore
M: 6/8
L: 1/8
K: D
F2 E FDD|cde dAG|FGE FDD|EFG EFG|
FGE FDD|cde dAG| FGA GEC| EDC D2 E|
F2 E FDD|cde dAG|FGE FDD|EFG EFG|
FGE FDD|cde dAG| FGA GEA| DED D2 B||
ABc dcd|fed cBA|ABc dcd|eag edd|
ABc d2 e|fed edc|ABA EFG|1 EFD D2 B:|EFD D2 E||
